static/images/navigation/what-we-do/copywriting.svg

<svg height="55.747" viewBox="0 0 63.804 55.747" width="63.804" xmlns="http://www.w3.org/2000/svg"><g fill="#414042"><path d="m7.187 3.976h-1.774c-4.713 0-12.368-6.155-12.692-6.419a1.007 1.007 0 0 1 -.149-1.416 1.006 1.006 0 0 1 1.418-.149c2.052 1.66 8.1 5.969 11.424 5.969h1.773a1.007 1.007 0 1 1 0 2.015" transform="translate(44.862 22.22)"/><path d="m3.082 15.4a7.19 7.19 0 0 1 -6.19-3.266 1.007 1.007 0 0 1 -.029-1.082c1.737-2.887 9.463-16.262 9.537-16.397a1.022 1.022 0 0 1 .3-.322l15.072-10.552a1 1 0 0 1 .793-.159l5.674 1.247a1.006 1.006 0 0 1 .766 1.2 1.009 1.009 0 0 1 -1.2.768l-5.242-1.154-14.525 10.174c-.905 1.563-7.02 12.137-9.102 15.653 2.618 3.142 6.679 1.414 6.857 1.334a1.007 1.007 0 0 1 .818 1.84 8.965 8.965 0 0 1 -3.529.719" transform="translate(3.281 31.44)"/><path d="m.488 5.321a1.008 1.008 0 0 1 -.956-1.327l2.99-8.971a1.01 1.01 0 0 1 1.278-.638 1.01 1.01 0 0 1 .636 1.276l-2.222 6.664 9.913-4.957a1.006 1.006 0 0 1 1.352.45 1.007 1.007 0 0 1 -.452 1.352l-12.089 6.044a1 1 0 0 1 -.45.107" transform="translate(1.862 50.426)"/><path d="m.488 18.664a1.006 1.006 0 0 1 -.737-1.693l33.143-35.583a3.95 3.95 0 0 1 5.269-.465 3.962 3.962 0 0 1 1.563 2.777 3.977 3.977 0 0 1 -.985 3.031l-28.059 31.221a1.007 1.007 0 1 1 -1.5-1.346l28.058-31.223a1.932 1.932 0 0 0 .483-1.485 1.931 1.931 0 0 0 -.77-1.363 1.944 1.944 0 0 0 -2.587.229l-33.141 35.578a1 1 0 0 1 -.737.322" transform="translate(11.968 19.872)"/><path d="m16.341 12.035h-4.59a16.721 16.721 0 0 1 -10.929-4.03h-12.522a5.718 5.718 0 0 1 -5.7-5.705c0-3.537 4-5.709 6.873-5.709h11.663a3.818 3.818 0 0 0 3.813-3.814v-4.584a1.006 1.006 0 0 1 1.006-1.006 1.007 1.007 0 0 1 1.008 1.006v4.584a5.835 5.835 0 0 1 -5.827 5.823h-11.662c-1.712 0-4.858 1.4-4.858 3.694a3.653 3.653 0 0 0 3.684 3.697h12.9a1 1 0 0 1 .665.252 14.76 14.76 0 0 0 9.888 3.778h4.59a16.421 16.421 0 0 0 4.511-.632 18.334 18.334 0 0 1 5.065-.712h1.53a1.007 1.007 0 0 1 0 2.015h-1.53a16.421 16.421 0 0 0 -4.511.632 18.334 18.334 0 0 1 -5.065.712" transform="translate(24.603 39.682)"/><path d="m2.465 2.277a.352.352 0 0 1 -.064 0h-.029c-3.039-.027-5-1.365-5-3.427v-.268a1.007 1.007 0 0 1 1.011-1.006 1.006 1.006 0 0 1 1.007 1.006v.268c0 .968 1.524 1.406 3.044 1.412a3.642 3.642 0 0 0 2.853-.9 1.009 1.009 0 0 1 1.4-.268 1.007 1.007 0 0 1 .266 1.4c-.772 1.131-2.353 1.765-4.458 1.783z" transform="translate(22.772 49.441)"/><path d="m2.1 2.277a.4.4 0 0 1 -.068 0 .247.247 0 0 1 -.039 0c-2.575-.037-4.233-1.377-4.233-3.427v-.268a1.007 1.007 0 0 1 1.008-1.006 1.006 1.006 0 0 1 1.007 1.006v.268c0 1.21 1.419 1.406 2.294 1.412.605 0 2.409-.126 2.409-1.412v-.268a1.006 1.006 0 0 1 1.006-1.006 1.007 1.007 0 0 1 1.008 1.006v.268c0 2.054-1.7 3.392-4.35 3.425a.26.26 0 0 1 -.039 0" transform="translate(15.671 49.441)"/><path d="m5.693 14.638h-10.746a1.009 1.009 0 0 1 -1.008-1.008v-28.209a1.008 1.008 0 0 1 1.008-1.006h10.746a1.008 1.008 0 0 1 1.007 1.006v28.208a1.009 1.009 0 0 1 -1.008 1.008m-9.739-2.015h8.73v-26.192h-8.73z" transform="translate(57.103 37.08)"/><path d="m2.55 3.038a1 1 0 0 1 -.712-.295l-4.258-4.258a1.008 1.008 0 0 1 0-1.425 1.011 1.011 0 0 1 1.425 0l4.257 4.258a1.007 1.007 0 0 1 -.712 1.72" transform="translate(43.095 8.694)"/><path d="m.488 2.928a1.009 1.009 0 0 1 -1.008-1.009v-4.03a1.008 1.008 0 0 1 1.008-1.006 1.008 1.008 0 0 1 1.012 1.006v4.03a1.009 1.009 0 0 1 -1.012 1.009" transform="translate(56.934 44.76)"/></g></svg>

<?xml version="1.0" encoding="UTF-8"?>
<svg xmlns="http://www.w3.org/2000/svg" width="63.804" height="55.747" viewBox="0 0 63.804 55.747">
  <g id="Copywriting" transform="translate(-812 107.747)">
    <g id="Group_1365" data-name="Group 1365" transform="translate(849.21 -89.76)">
      <path id="Path_2674" data-name="Path 2674" d="M7.187,3.976H5.413C.7,3.976-6.955-2.179-7.279-2.443a1.007,1.007,0,0,1-.149-1.416,1.006,1.006,0,0,1,1.418-.149c2.052,1.66,8.1,5.969,11.424,5.969H7.187a1.007,1.007,0,1,1,0,2.015" transform="translate(7.652 4.233)" fill="#414042"></path>
    </g>
    <g id="Group_1366" data-name="Group 1366" transform="translate(812 -92.708)">
      <path id="Path_2675" data-name="Path 2675" d="M3.082,15.4a7.19,7.19,0,0,1-6.19-3.266,1.007,1.007,0,0,1-.029-1.082C-1.4,8.165,6.326-5.21,6.4-5.345a1.022,1.022,0,0,1,.3-.322L21.772-16.219a1,1,0,0,1,.793-.159l5.674,1.247a1.006,1.006,0,0,1,.766,1.2,1.009,1.009,0,0,1-1.2.768l-5.242-1.154L8.038-4.143C7.133-2.58,1.018,7.994-1.064,11.51c2.618,3.142,6.679,1.414,6.857,1.334a1.007,1.007,0,0,1,.818,1.84,8.965,8.965,0,0,1-3.529.719" transform="translate(3.281 16.401)" fill="#414042"></path>
    </g>
    <g id="Group_1367" data-name="Group 1367" transform="translate(813.343 -62.986)">
      <path id="Path_2676" data-name="Path 2676" d="M.488,5.321A1.008,1.008,0,0,1-.468,3.994l2.99-8.971A1.01,1.01,0,0,1,3.8-5.615a1.01,1.01,0,0,1,.636,1.276L2.214,2.325l9.913-4.957a1.006,1.006,0,0,1,1.352.45A1.007,1.007,0,0,1,13.027-.83L.938,5.214a1,1,0,0,1-.45.107" transform="translate(0.519 5.665)" fill="#414042"></path>
    </g>
    <g id="Group_1368" data-name="Group 1368" transform="translate(823.448 -107.747)">
      <path id="Path_2677" data-name="Path 2677" d="M.488,18.664a1.006,1.006,0,0,1-.737-1.693L32.894-18.612a3.95,3.95,0,0,1,5.269-.465A3.962,3.962,0,0,1,39.726-16.3a3.977,3.977,0,0,1-.985,3.031L10.682,17.952a1.007,1.007,0,1,1-1.5-1.346L37.24-14.617a1.932,1.932,0,0,0,.483-1.485,1.931,1.931,0,0,0-.77-1.363,1.944,1.944,0,0,0-2.587.229L1.225,18.342a1,1,0,0,1-.737.322" transform="translate(0.52 19.872)" fill="#414042"></path>
    </g>
    <g id="Group_1369" data-name="Group 1369" transform="translate(819.204 -80.879)">
      <path id="Path_2678" data-name="Path 2678" d="M16.341,12.035h-4.59A16.721,16.721,0,0,1,.822,8.005H-11.7A5.718,5.718,0,0,1-17.4,2.3c0-3.537,4-5.709,6.873-5.709H1.136A3.818,3.818,0,0,0,4.949-7.223v-4.584a1.006,1.006,0,0,1,1.006-1.006,1.007,1.007,0,0,1,1.008,1.006v4.584A5.835,5.835,0,0,1,1.136-1.4H-10.526c-1.712,0-4.858,1.4-4.858,3.694A3.653,3.653,0,0,0-11.7,5.991H1.2a1,1,0,0,1,.665.252,14.76,14.76,0,0,0,9.888,3.778h4.59a16.421,16.421,0,0,0,4.511-.632,18.334,18.334,0,0,1,5.065-.712h1.53a1.007,1.007,0,0,1,0,2.015h-1.53a16.421,16.421,0,0,0-4.511.632,18.334,18.334,0,0,1-5.065.712" transform="translate(17.399 12.814)" fill="#414042"></path>
    </g>
    <g id="Group_1370" data-name="Group 1370" transform="translate(832.147 -60.73)">
      <path id="Path_2679" data-name="Path 2679" d="M2.465,2.277a.352.352,0,0,1-.064,0H2.372c-3.039-.027-5-1.365-5-3.427v-.268A1.007,1.007,0,0,1-1.617-2.424,1.006,1.006,0,0,1-.61-1.418v.268C-.61-.182.914.256,2.434.262a3.642,3.642,0,0,0,2.853-.9,1.009,1.009,0,0,1,1.4-.268,1.007,1.007,0,0,1,.266,1.4C6.181,1.625,4.6,2.259,2.495,2.277Z" transform="translate(2.625 2.424)" fill="#414042"></path>
    </g>
    <g id="Group_1371" data-name="Group 1371" transform="translate(825.431 -60.73)">
      <path id="Path_2680" data-name="Path 2680" d="M2.1,2.277a.4.4,0,0,1-.068,0,.247.247,0,0,1-.039,0C-.582,2.24-2.24.9-2.24-1.15v-.268A1.007,1.007,0,0,1-1.232-2.424,1.006,1.006,0,0,1-.225-1.418v.268C-.225.06,1.194.256,2.069.262c.605,0,2.409-.126,2.409-1.412v-.268A1.006,1.006,0,0,1,5.484-2.424,1.007,1.007,0,0,1,6.492-1.418v.268c0,2.054-1.7,3.392-4.35,3.425a.26.26,0,0,1-.039,0" transform="translate(2.24 2.424)" fill="#414042"></path>
    </g>
    <g id="Group_1372" data-name="Group 1372" transform="translate(863.042 -86.252)">
      <path id="Path_2681" data-name="Path 2681" d="M5.693,14.638H-5.053a1.009,1.009,0,0,1-1.008-1.008V-14.579a1.008,1.008,0,0,1,1.008-1.006H5.693A1.008,1.008,0,0,1,6.7-14.579V13.629a1.009,1.009,0,0,1-1.008,1.008m-9.739-2.015h8.73V-13.57h-8.73Z" transform="translate(6.061 15.585)" fill="#414042"></path>
    </g>
    <g id="Group_1373" data-name="Group 1373" transform="translate(852.38 -102.287)">
      <path id="Path_2682" data-name="Path 2682" d="M2.55,3.038a1,1,0,0,1-.712-.295L-2.42-1.515a1.008,1.008,0,0,1,0-1.425,1.011,1.011,0,0,1,1.425,0L3.262,1.318a1.007,1.007,0,0,1-.712,1.72" transform="translate(2.715 3.234)" fill="#414042"></path>
    </g>
    <g id="Group_1374" data-name="Group 1374" transform="translate(868.414 -66.104)">
      <path id="Path_2683" data-name="Path 2683" d="M.488,2.928A1.009,1.009,0,0,1-.52,1.919v-4.03A1.008,1.008,0,0,1,.488-3.117,1.008,1.008,0,0,1,1.5-2.111v4.03A1.009,1.009,0,0,1,.488,2.928" transform="translate(0.52 3.117)" fill="#414042"></path>
    </g>
  </g>
</svg>
